assets/1. F-P/Mahjong red dragon/Color/Mahjong.Red.Dragon-color.svg

<svg width="100%" height="100%" viewBox="0 0 32 32" fill="none" xmlns="http://www.w3.org/2000/svg">
<path d="M25.1024 6.60999H7.19309C6.06565 6.60999 5.14774 7.52999 5.14774 8.65999V27.95C5.14774 29.08 6.06565 30 7.19309 30H25.1024C26.2298 30 27.1477 29.08 27.1477 27.95V8.65999C27.1477 7.52999 26.2298 6.60999 25.1024 6.60999Z" fill="url(#paint0_linear_18_4139)"/>
<path d="M25.1024 6.60999H7.19309C6.06565 6.60999 5.14774 7.52999 5.14774 8.65999V27.95C5.14774 29.08 6.06565 30 7.19309 30H25.1024C26.2298 30 27.1477 29.08 27.1477 27.95V8.65999C27.1477 7.52999 26.2298 6.60999 25.1024 6.60999Z" fill="url(#paint1_linear_18_4139)"/>
<path d="M25.1024 6.60999H7.19309C6.06565 6.60999 5.14774 7.52999 5.14774 8.65999V27.95C5.14774 29.08 6.06565 30 7.19309 30H25.1024C26.2298 30 27.1477 29.08 27.1477 27.95V8.65999C27.1477 7.52999 26.2298 6.60999 25.1024 6.60999Z" fill="url(#paint2_linear_18_4139)"/>
<g filter="url(#filter0_f_18_4139)">
<path d="M24.9394 5.68402H7.35606C6.24914 5.68402 5.34793 6.56294 5.34793 7.65434V26.2855C5.34793 27.3769 6.24914 28.2654 7.35606 28.2654H24.9394C26.0463 28.2654 26.9476 27.3769 26.9476 26.2855V7.65434C26.9476 6.56294 26.0463 5.68402 24.9394 5.68402Z" fill="url(#paint3_linear_18_4139)"/>
</g>
<path d="M25.1024 5H7.19309C6.06565 5 5.14774 5.89521 5.14774 7.00684V25.9833C5.14774 27.095 6.06565 28 7.19309 28H25.1024C26.2298 28 27.1477 27.095 27.1477 25.9833V7.00684C27.1477 5.89521 26.2298 5 25.1024 5Z" fill="url(#paint4_linear_18_4139)"/>
<path d="M25.1024 5H7.19309C6.06565 5 5.14774 5.89521 5.14774 7.00684V25.9833C5.14774 27.095 6.06565 28 7.19309 28H25.1024C26.2298 28 27.1477 27.095 27.1477 25.9833V7.00684C27.1477 5.89521 26.2298 5 25.1024 5Z" fill="url(#paint5_linear_18_4139)"/>
<path d="M25.1024 5H7.19309C6.06565 5 5.14774 5.89521 5.14774 7.00684V25.9833C5.14774 27.095 6.06565 28 7.19309 28H25.1024C26.2298 28 27.1477 27.095 27.1477 25.9833V7.00684C27.1477 5.89521 26.2298 5 25.1024 5Z" fill="url(#paint6_linear_18_4139)"/>
<g filter="url(#filter1_iii_18_4139)">
<path d="M25.1024 2H7.19309C6.06565 2 5.14774 2.90466 5.14774 4.01582V22.9842C5.14774 24.0953 6.06565 25 7.19309 25H25.1024C26.2298 25 27.1477 24.0953 27.1477 22.9842V4.01582C27.1477 2.90466 26.2298 2 25.1024 2Z" fill="url(#paint7_linear_18_4139)"/>
</g>
<path d="M25.1024 2H7.19309C6.06565 2 5.14774 2.90466 5.14774 4.01582V22.9842C5.14774 24.0953 6.06565 25 7.19309 25H25.1024C26.2298 25 27.1477 24.0953 27.1477 22.9842V4.01582C27.1477 2.90466 26.2298 2 25.1024 2Z" fill="url(#paint8_linear_18_4139)"/>
<path d="M25.1024 2H7.19309C6.06565 2 5.14774 2.90466 5.14774 4.01582V22.9842C5.14774 24.0953 6.06565 25 7.19309 25H25.1024C26.2298 25 27.1477 24.0953 27.1477 22.9842V4.01582C27.1477 2.90466 26.2298 2 25.1024 2Z" fill="url(#paint9_radial_18_4139)"/>
<path d="M20.5477 8H17.1477L17.1477 6.08C17.1477 5.48 16.7677 5 16.1677 5C15.5677 5 15.1477 5.48 15.1477 6.08L15.1409 8H11.7809C11.1809 8 10.7009 8.48 10.7009 9.08L10.7077 12.34V13.69V14.6C10.7077 15.2 11.1877 15.68 11.7877 15.68C12.3277 15.68 12.7677 15.28 12.8577 14.77H15.1477V21.8C15.1477 22.4 15.5677 22.88 16.1677 22.88C16.7677 22.88 17.1477 22.4 17.1477 21.8V14.77H19.4777C19.5577 15.29 20.0077 15.68 20.5477 15.68C21.1477 15.68 21.6277 15.2 21.6277 14.6V13.69V12.34L21.6277 9.08C21.6277 8.48 21.1477 8 20.5477 8ZM12.9209 12.26C12.9209 12.07 12.9209 10.5853 12.9209 10.5853C12.9209 10.3953 13.0809 10.2353 13.2709 10.2353H14.7909C14.9809 10.2353 15.1409 10.3953 15.1409 10.5853V12.1953C15.1409 12.3853 14.9809 12.5453 14.7909 12.5453H13.2709C13.0709 12.5453 12.9209 12.45 12.9209 12.26ZM17.4977 10.2353H19.0177C19.2077 10.2353 19.3677 10.3953 19.3677 10.5853V12.1953C19.3677 12.3853 19.2077 12.5453 19.0177 12.5453H17.4977C17.3077 12.5453 17.1477 12.3853 17.1477 12.1953V10.5853C17.1477 10.3853 17.3077 10.2353 17.4977 10.2353Z" fill="url(#paint10_linear_18_4139)"/>
<defs>
<filter id="filter0_f_18_4139" x="5.19793" y="5.53402" width="21.8996" height="22.8814" filterUnits="userSpaceOnUse" color-interpolation-filters="sRGB">
<feFlood flood-opacity="0" result="BackgroundImageFix"/>
<feBlend mode="normal" in="SourceGraphic" in2="BackgroundImageFix" result="shape"/>
<feGaussianBlur stdDeviation="0.075" result="effect1_foregroundBlur_18_4139"/>
</filter>
<filter id="filter1_iii_18_4139" x="4.64774" y="1.5" width="23" height="24" filterUnits="userSpaceOnUse" color-interpolation-filters="sRGB">
<feFlood flood-opacity="0" result="BackgroundImageFix"/>
<feBlend mode="normal" in="SourceGraphic" in2="BackgroundImageFix" result="shape"/>
<feColorMatrix in="SourceAlpha" type="matrix" values="0 0 0 0 0 0 0 0 0 0 0 0 0 0 0 0 0 0 127 0" result="hardAlpha"/>
<feOffset dx="0.5" dy="-0.5"/>
<feGaussianBlur stdDeviation="0.375"/>
<feComposite in2="hardAlpha" operator="arithmetic" k2="-1" k3="1"/>
<feColorMatrix type="matrix" values="0 0 0 0 0.741176 0 0 0 0 0.733333 0 0 0 0 0.74902 0 0 0 1 0"/>
<feBlend mode="normal" in2="shape" result="effect1_innerShadow_18_4139"/>
<feColorMatrix in="SourceAlpha" type="matrix" values="0 0 0 0 0 0 0 0 0 0 0 0 0 0 0 0 0 0 127 0" result="hardAlpha"/>
<feOffset dx="-0.5" dy="0.5"/>
<feGaussianBlur stdDeviation="0.375"/>
<feComposite in2="hardAlpha" operator="arithmetic" k2="-1" k3="1"/>
<feColorMatrix type="matrix" values="0 0 0 0 0.984314 0 0 0 0 0.984314 0 0 0 0 0.988235 0 0 0 1 0"/>
<feBlend mode="normal" in2="effect1_innerShadow_18_4139" result="effect2_innerShadow_18_4139"/>
<feColorMatrix in="SourceAlpha" type="matrix" values="0 0 0 0 0 0 0 0 0 0 0 0 0 0 0 0 0 0 127 0" result="hardAlpha"/>
<feOffset/>
<feGaussianBlur stdDeviation="0.25"/>
<feComposite in2="hardAlpha" operator="arithmetic" k2="-1" k3="1"/>
<feColorMatrix type="matrix" values="0 0 0 0 0.847059 0 0 0 0 0.847059 0 0 0 0 0.843137 0 0 0 1 0"/>
<feBlend mode="normal" in2="effect2_innerShadow_18_4139" result="effect3_innerShadow_18_4139"/>
</filter>
<linearGradient id="paint0_linear_18_4139" x1="8.95159" y1="29.625" x2="24.2294" y2="29.625" gradientUnits="userSpaceOnUse">
<stop stop-color="#AA6262"/>
<stop offset="1" stop-color="#C38980"/>
</linearGradient>
<linearGradient id="paint1_linear_18_4139" x1="27.1477" y1="30" x2="24.7727" y2="30" gradientUnits="userSpaceOnUse">
<stop stop-color="#D8A892"/>
<stop offset="1" stop-color="#D8A892" stop-opacity="0"/>
</linearGradient>
<linearGradient id="paint2_linear_18_4139" x1="5.14774" y1="30" x2="6.77274" y2="30" gradientUnits="userSpaceOnUse">
<stop stop-color="#B77C70"/>
<stop offset="1" stop-color="#B77C70" stop-opacity="0"/>
</linearGradient>
<linearGradient id="paint3_linear_18_4139" x1="7.76606" y1="27.4277" x2="27.2403" y2="27.4277" gradientUnits="userSpaceOnUse">
<stop stop-color="#A5562E"/>
<stop offset="0.840777" stop-color="#D39D70" stop-opacity="0"/>
<stop offset="1" stop-color="#D39D70"/>
</linearGradient>
<linearGradient id="paint4_linear_18_4139" x1="9.14774" y1="25.6875" x2="26.0227" y2="25.6875" gradientUnits="userSpaceOnUse">
<stop stop-color="#9780AD"/>
<stop offset="1" stop-color="#967DAC"/>
</linearGradient>
<linearGradient id="paint5_linear_18_4139" x1="5.14774" y1="26.25" x2="6.02274" y2="26.25" gradientUnits="userSpaceOnUse">
<stop stop-color="#B5ADBF"/>
<stop offset="1" stop-color="#B5ADBF" stop-opacity="0"/>
</linearGradient>
<linearGradient id="paint6_linear_18_4139" x1="27.1477" y1="26.25" x2="26.0227" y2="26.25" gradientUnits="userSpaceOnUse">
<stop stop-color="#B5ADBF"/>
<stop offset="1" stop-color="#B5ADBF" stop-opacity="0"/>
</linearGradient>
<linearGradient id="paint7_linear_18_4139" x1="16.1477" y1="2" x2="16.1477" y2="25" gradientUnits="userSpaceOnUse">
<stop stop-color="#E9E9EA"/>
<stop offset="1" stop-color="#E9E8EA"/>
</linearGradient>
<linearGradient id="paint8_linear_18_4139" x1="16.1477" y1="2" x2="16.1477" y2="2.125" gradientUnits="userSpaceOnUse">
<stop stop-color="#D8D8D7"/>
<stop offset="1" stop-color="#D8D8D7" stop-opacity="0"/>
</linearGradient>
<radialGradient id="paint9_radial_18_4139" cx="0" cy="0" r="1" gradientUnits="userSpaceOnUse" gradientTransform="translate(5.66336 2.4375) rotate(48.4474) scale(0.918691 2.50999)">
<stop stop-color="#C6C7C5"/>
<stop offset="1" stop-color="#C6C7C5" stop-opacity="0"/>
</radialGradient>
<linearGradient id="paint10_linear_18_4139" x1="11.2696" y1="13.94" x2="21.6277" y2="13.94" gradientUnits="userSpaceOnUse">
<stop stop-color="#FF4763"/>
<stop offset="1" stop-color="#FF448E"/>
</linearGradient>
</defs>
</svg>

<svg width="100%" height="100%" viewBox="0 0 32 32" xmlns="http://www.w3.org/2000/svg"><path fill="url(#a)" d="M25.102 6.61H7.193a2.05 2.05 0 0 0-2.045 2.05v19.29c0 1.13.918 2.05 2.045 2.05h17.91a2.05 2.05 0 0 0 2.045-2.05V8.66a2.05 2.05 0 0 0-2.046-2.05"/><path fill="url(#b)" d="M25.102 6.61H7.193a2.05 2.05 0 0 0-2.045 2.05v19.29c0 1.13.918 2.05 2.045 2.05h17.91a2.05 2.05 0 0 0 2.045-2.05V8.66a2.05 2.05 0 0 0-2.046-2.05"/><path fill="url(#c)" d="M25.102 6.61H7.193a2.05 2.05 0 0 0-2.045 2.05v19.29c0 1.13.918 2.05 2.045 2.05h17.91a2.05 2.05 0 0 0 2.045-2.05V8.66a2.05 2.05 0 0 0-2.046-2.05"/><g filter="url(#d)"><path fill="url(#e)" d="M24.94 5.684H7.355c-1.107 0-2.008.879-2.008 1.97v18.632c0 1.09.901 1.98 2.008 1.98H24.94c1.107 0 2.009-.89 2.009-1.98V7.653c0-1.091-.902-1.97-2.009-1.97"/></g><path fill="url(#f)" d="M25.102 5H7.193c-1.127 0-2.045.895-2.045 2.007v18.976c0 1.112.918 2.017 2.045 2.017h17.91c1.127 0 2.045-.905 2.045-2.017V7.007C27.148 5.895 26.23 5 25.102 5"/><path fill="url(#g)" d="M25.102 5H7.193c-1.127 0-2.045.895-2.045 2.007v18.976c0 1.112.918 2.017 2.045 2.017h17.91c1.127 0 2.045-.905 2.045-2.017V7.007C27.148 5.895 26.23 5 25.102 5"/><path fill="url(#h)" d="M25.102 5H7.193c-1.127 0-2.045.895-2.045 2.007v18.976c0 1.112.918 2.017 2.045 2.017h17.91c1.127 0 2.045-.905 2.045-2.017V7.007C27.148 5.895 26.23 5 25.102 5"/><g filter="url(#i)"><path fill="url(#j)" d="M25.102 2H7.193c-1.127 0-2.045.905-2.045 2.016v18.968c0 1.111.918 2.016 2.045 2.016h17.91c1.127 0 2.045-.905 2.045-2.016V4.016C27.148 2.905 26.23 2 25.102 2"/></g><path fill="url(#k)" d="M25.102 2H7.193c-1.127 0-2.045.905-2.045 2.016v18.968c0 1.111.918 2.016 2.045 2.016h17.91c1.127 0 2.045-.905 2.045-2.016V4.016C27.148 2.905 26.23 2 25.102 2"/><path fill="url(#l)" d="M25.102 2H7.193c-1.127 0-2.045.905-2.045 2.016v18.968c0 1.111.918 2.016 2.045 2.016h17.91c1.127 0 2.045-.905 2.045-2.016V4.016C27.148 2.905 26.23 2 25.102 2"/><path fill="url(#m)" d="M20.548 8h-3.4V6.08c0-.6-.38-1.08-.98-1.08s-1.02.48-1.02 1.08L15.14 8h-3.36c-.6 0-1.08.48-1.08 1.08l.007 3.26v2.26c0 .6.48 1.08 1.08 1.08.54 0 .98-.4 1.07-.91h2.29v7.03c0 .6.42 1.08 1.02 1.08s.98-.48.98-1.08v-7.03h2.33c.08.52.53.91 1.07.91.6 0 1.08-.48 1.08-1.08V9.08c0-.6-.48-1.08-1.08-1.08m-7.627 4.26v-1.675c0-.19.16-.35.35-.35h1.52c.19 0 .35.16.35.35v1.61c0 .19-.16.35-.35.35h-1.52c-.2 0-.35-.095-.35-.285m4.577-2.025h1.52c.19 0 .35.16.35.35v1.61c0 .19-.16.35-.35.35h-1.52c-.19 0-.35-.16-.35-.35v-1.61c0-.2.16-.35.35-.35"/><defs><linearGradient id="a" x1="8.952" x2="24.229" y1="29.625" y2="29.625" gradientUnits="userSpaceOnUse"><stop stop-color="#AA6262"/><stop offset="1" stop-color="#C38980"/></linearGradient><linearGradient id="b" x1="27.148" x2="24.773" y1="30" y2="30" gradientUnits="userSpaceOnUse"><stop stop-color="#D8A892"/><stop offset="1" stop-color="#D8A892" stop-opacity="0"/></linearGradient><linearGradient id="c" x1="5.148" x2="6.773" y1="30" y2="30" gradientUnits="userSpaceOnUse"><stop stop-color="#B77C70"/><stop offset="1" stop-color="#B77C70" stop-opacity="0"/></linearGradient><linearGradient id="e" x1="7.766" x2="27.24" y1="27.428" y2="27.428" gradientUnits="userSpaceOnUse"><stop stop-color="#A5562E"/><stop offset=".841" stop-color="#D39D70" stop-opacity="0"/><stop offset="1" stop-color="#D39D70"/></linearGradient><linearGradient id="f" x1="9.148" x2="26.023" y1="25.688" y2="25.688" gradientUnits="userSpaceOnUse"><stop stop-color="#9780AD"/><stop offset="1" stop-color="#967DAC"/></linearGradient><linearGradient id="g" x1="5.148" x2="6.023" y1="26.25" y2="26.25" gradientUnits="userSpaceOnUse"><stop stop-color="#B5ADBF"/><stop offset="1" stop-color="#B5ADBF" stop-opacity="0"/></linearGradient><linearGradient id="h" x1="27.148" x2="26.023" y1="26.25" y2="26.25" gradientUnits="userSpaceOnUse"><stop stop-color="#B5ADBF"/><stop offset="1" stop-color="#B5ADBF" stop-opacity="0"/></linearGradient><linearGradient id="j" x1="16.148" x2="16.148" y1="2" y2="25" gradientUnits="userSpaceOnUse"><stop stop-color="#E9E9EA"/><stop offset="1" stop-color="#E9E8EA"/></linearGradient><linearGradient id="k" x1="16.148" x2="16.148" y1="2" y2="2.125" gradientUnits="userSpaceOnUse"><stop stop-color="#D8D8D7"/><stop offset="1" stop-color="#D8D8D7" stop-opacity="0"/></linearGradient><linearGradient id="m" x1="11.27" x2="21.628" y1="13.94" y2="13.94" gradientUnits="userSpaceOnUse"><stop stop-color="#FF4763"/><stop offset="1" stop-color="#FF448E"/></linearGradient><filter id="d" width="21.9" height="22.881" x="5.198" y="5.534" color-interpolation-filters="sRGB" filterUnits="userSpaceOnUse"><feFlood flood-opacity="0" result="BackgroundImageFix"/><feBlend in="SourceGraphic" in2="BackgroundImageFix" result="shape"/><feGaussianBlur result="effect1_foregroundBlur_18_4139" stdDeviation=".075"/></filter><filter id="i" width="23" height="24" x="4.648" y="1.5" color-interpolation-filters="sRGB" filterUnits="userSpaceOnUse"><feFlood flood-opacity="0" result="BackgroundImageFix"/><feBlend in="SourceGraphic" in2="BackgroundImageFix" result="shape"/><feColorMatrix in="SourceAlpha" result="hardAlpha" values="0 0 0 0 0 0 0 0 0 0 0 0 0 0 0 0 0 0 127 0"/><feOffset dx=".5" dy="-.5"/><feGaussianBlur stdDeviation=".375"/><feComposite in2="hardAlpha" k2="-1" k3="1" operator="arithmetic"/><feColorMatrix values="0 0 0 0 0.741176 0 0 0 0 0.733333 0 0 0 0 0.74902 0 0 0 1 0"/><feBlend in2="shape" result="effect1_innerShadow_18_4139"/><feColorMatrix in="SourceAlpha" result="hardAlpha" values="0 0 0 0 0 0 0 0 0 0 0 0 0 0 0 0 0 0 127 0"/><feOffset dx="-.5" dy=".5"/><feGaussianBlur stdDeviation=".375"/><feComposite in2="hardAlpha" k2="-1" k3="1" operator="arithmetic"/><feColorMatrix values="0 0 0 0 0.984314 0 0 0 0 0.984314 0 0 0 0 0.988235 0 0 0 1 0"/><feBlend in2="effect1_innerShadow_18_4139" result="effect2_innerShadow_18_4139"/><feColorMatrix in="SourceAlpha" result="hardAlpha" values="0 0 0 0 0 0 0 0 0 0 0 0 0 0 0 0 0 0 127 0"/><feOffset/><feGaussianBlur stdDeviation=".25"/><feComposite in2="hardAlpha" k2="-1" k3="1" operator="arithmetic"/><feColorMatrix values="0 0 0 0 0.847059 0 0 0 0 0.847059 0 0 0 0 0.843137 0 0 0 1 0"/><feBlend in2="effect2_innerShadow_18_4139" result="effect3_innerShadow_18_4139"/></filter><radialGradient id="l" cx="0" cy="0" r="1" gradientTransform="rotate(48.447 .123 7.513)scale(.91869 2.50999)" gradientUnits="userSpaceOnUse"><stop stop-color="#C6C7C5"/><stop offset="1" stop-color="#C6C7C5" stop-opacity="0"/></radialGradient></defs></svg>
